src/images/CoffeeMug_TheConcept-01.svg

<svg width="162" height="174" viewBox="0 0 162 174" fill="none" xmlns="http://www.w3.org/2000/svg">
<path d="M151.85 93.6979C140.991 85.7112 124.952 89.1357 116.032 101.355C107.112 113.575 108.678 129.935 119.548 137.934C130.419 145.932 146.44 142.496 155.366 130.282C164.292 118.068 162.709 101.69 151.85 93.6979ZM144.829 122.538C140.68 128.22 133.228 129.808 128.181 126.095C123.134 122.382 122.426 114.771 126.552 109.094C130.678 103.417 138.154 101.823 143.201 105.536C148.247 109.25 148.978 116.861 144.829 122.538Z" fill="#F3C74A"/>
<g style="mix-blend-mode:multiply" opacity="0.53">
<g style="mix-blend-mode:multiply" opacity="0.53">
<path d="M128.37 126.292C127.334 125.521 126.451 124.561 125.769 123.462L125.568 141.185C130.029 142.685 134.83 142.842 139.379 141.636L142.803 125.131C138.539 128.781 132.612 129.41 128.37 126.292Z" fill="#F3C74A"/>
</g>
<g style="mix-blend-mode:multiply" opacity="0.53">
<path d="M126.742 109.285C130.891 103.608 138.344 102.014 143.396 105.727C144.524 106.563 145.468 107.623 146.17 108.84L149.588 92.3352C142.435 88.4082 133.636 88.7836 126.115 92.8491L125.913 110.572C126.167 110.139 126.454 109.723 126.742 109.285Z" fill="#F3C74A"/>
</g>
</g>
<path d="M93.5079 161.605H37.0824C34.2219 161.605 31.9031 163.932 31.9031 166.803C31.9031 169.673 34.2219 172 37.0824 172H93.5079C96.3684 172 98.6872 169.673 98.6872 166.803C98.6872 163.932 96.3684 161.605 93.5079 161.605Z" fill="#F3C74A"/>
<path d="M129.424 93.3167C129.481 92.0636 129.55 90.8162 129.59 89.5573C129.638 88.2687 129.426 86.9838 128.967 85.7792C128.509 84.5746 127.814 83.475 126.923 82.5459C126.032 81.6168 124.963 80.8772 123.781 80.3713C122.6 79.8654 121.328 79.6036 120.043 79.6013H10.553C9.2676 79.6028 7.99565 79.8641 6.81307 80.3696C5.63049 80.8752 4.56152 81.6146 3.66994 82.5438C2.77837 83.473 2.08246 84.5729 1.62376 85.7779C1.16505 86.9829 0.952943 88.2682 1.00009 89.5573C1.21494 95.825 1.62928 101.97 2.24312 107.991V92.9183C7.73893 92.9876 12.0953 94.1772 12.0953 108.978C12.0953 117.837 9.84518 129.618 7.22676 138.015C10.0687 147.367 15.8323 155.554 23.6664 161.367C31.5005 167.18 40.9897 170.31 50.7328 170.296H79.8405C88.6115 170.305 97.1977 167.767 104.564 162.989C111.93 158.211 117.762 151.397 121.355 143.368C118.035 135.422 114.576 119.951 114.576 108.978C114.576 94.1772 118.938 92.9876 124.428 92.9183V133.614C124.866 131.497 125.276 129.352 125.66 127.181V92.8894C126.928 92.868 128.193 93.0116 129.424 93.3167Z" fill="#F3C74A"/>
<path d="M39.4995 108.949C39.4995 123.491 45.5708 145.938 49.3517 148.288V92.8894C43.8616 92.976 39.4995 94.131 39.4995 108.949Z" fill="#F8EEC8"/>
<path d="M60.4352 108.949C60.4352 94.1483 56.0788 92.9587 50.583 92.8894V148.288C54.3639 145.938 60.4352 123.491 60.4352 108.949Z" fill="#F8EEC8"/>
<path d="M15.0417 108.949C15.0417 123.491 21.113 145.938 24.8939 148.288V92.8894C19.4154 92.976 15.0417 94.131 15.0417 108.949Z" fill="#F8EEC8"/>
<path d="M35.9774 108.949C35.9774 94.1483 31.6211 92.9587 26.1252 92.8894V148.288C29.9061 145.938 35.9774 123.491 35.9774 108.949Z" fill="#F8EEC8"/>
<path d="M65.396 108.949C65.396 123.491 71.4673 145.938 75.2482 148.288V92.8894C69.7581 92.976 65.396 94.131 65.396 108.949Z" fill="#F8EEC8"/>
<path d="M86.3319 108.949C86.3319 94.1483 81.9755 92.9587 76.4797 92.8894V148.288C80.2606 145.938 86.3319 123.491 86.3319 108.949Z" fill="#F8EEC8"/>
<path d="M90.1414 108.949C90.1414 123.491 96.2126 145.938 99.9935 148.288V92.8894C94.5035 92.976 90.1414 94.131 90.1414 108.949Z" fill="#F8EEC8"/>
<path d="M111.077 108.949C111.077 94.1483 106.721 92.9587 101.225 92.8894V148.288C105.006 145.938 111.077 123.491 111.077 108.949Z" fill="#F8EEC8"/>
<path d="M2.24292 92.8894V107.991C3.1182 116.823 4.46289 125.602 6.27126 134.29C6.53598 135.554 6.84674 136.796 7.2208 138.015C9.83922 129.618 12.0893 117.837 12.0893 108.978C12.0951 94.131 7.73873 92.976 2.24292 92.8894Z" fill="#F8EEC8"/>
<path d="M114.599 108.949C114.599 119.922 118.052 135.393 121.378 143.339C122.676 140.426 123.662 137.383 124.319 134.261C124.365 134.036 124.405 133.805 124.451 133.585V92.8894C118.973 92.976 114.599 94.131 114.599 108.949Z" fill="#F8EEC8"/>
<path d="M125.683 92.8894V127.152C127.659 115.967 128.909 104.665 129.424 93.3168C128.2 93.0136 126.943 92.87 125.683 92.8894Z" fill="#F8EEC8"/>
<path d="M68.0892 9.55737C69.498 6.76905 71.7949 4.53316 74.6151 3.20496C74.9465 3.05373 75.2188 2.79688 75.3897 2.47432C75.5606 2.15177 75.6205 1.78159 75.5601 1.42134C75.4998 1.06108 75.3225 0.730942 75.0558 0.482237C74.7892 0.233532 74.4481 0.0802002 74.0857 0.0460789C71.5838 -0.17586 69.0775 0.420931 66.9416 1.7472C64.8058 3.07346 63.1552 5.05793 62.2367 7.40382C61.3182 9.7497 61.1812 12.3309 61.8461 14.7615C62.511 17.192 63.9421 19.3413 65.9254 20.8878C66.2459 21.1372 66.6403 21.272 67.0459 21.2706C67.4516 21.2693 67.8451 21.1319 68.1639 20.8803C68.4828 20.6287 68.7087 20.2773 68.8056 19.8821C68.9026 19.4869 68.8652 19.0705 68.6992 18.6991C67.4784 15.8071 67.2635 12.5869 68.0892 9.55737Z" fill="#F8EEC8"/>
<path d="M66.6044 16.4642C67.1957 16.8942 67.7484 17.3754 68.256 17.9022C70.0644 19.7875 71.1914 22.2263 71.4574 24.8294C71.7234 27.4325 71.113 30.05 69.7235 32.2644C69.2427 33.0184 68.679 33.7157 68.0431 34.3434C67.853 34.5332 67.7298 34.78 67.6923 35.0465C67.6548 35.3129 67.7049 35.5844 67.8352 35.8196C67.9654 36.0548 68.1686 36.241 68.4138 36.3497C68.6591 36.4585 68.933 36.484 69.194 36.4223C71.8863 35.7677 74.2551 34.1653 75.8696 31.9064C77.0546 30.2542 77.7887 28.3199 77.999 26.2952C78.2093 24.2706 77.8885 22.2259 77.0684 20.3641C76.2483 18.5022 74.9574 16.8878 73.3238 15.6811C71.6902 14.4743 69.7706 13.717 67.7553 13.4844C67.3937 13.4428 67.0285 13.5227 66.7169 13.7116C66.4053 13.9005 66.1649 14.1877 66.0334 14.5284C65.9018 14.869 65.8865 15.2438 65.9898 15.594C66.0931 15.9443 66.3093 16.2504 66.6044 16.4642Z" fill="#F8EEC8"/>
<path d="M62.5759 39.7313C63.9937 36.9567 66.2889 34.7327 69.1018 33.4078C69.4439 33.2646 69.728 33.0101 69.9085 32.6853C70.089 32.3604 70.1554 31.984 70.0969 31.6168C70.0385 31.2495 69.8586 30.9126 69.5863 30.6603C69.3139 30.408 68.9649 30.255 68.5954 30.2258C66.4498 30.0297 64.2924 30.4419 62.3687 31.4155C60.6148 32.299 59.1122 33.6135 58.0009 35.2366C56.8895 36.8597 56.2054 38.7386 56.0124 40.6984C55.8194 42.6581 56.1238 44.6351 56.8971 46.4451C57.6703 48.2551 58.8875 49.8393 60.4351 51.0502C60.7545 51.3007 61.1484 51.4366 61.5539 51.4361C61.9593 51.4356 62.3528 51.2987 62.6716 51.0473C62.9904 50.7959 63.216 50.4445 63.3123 50.0493C63.4087 49.6541 63.3703 49.238 63.2032 48.8673C61.985 45.9773 61.7642 42.7617 62.5759 39.7313Z" fill="#F8EEC8"/>
<path d="M63.0306 47.9837C63.6322 48.4096 64.1929 48.891 64.7052 49.4216C66.5159 51.3045 67.6446 53.7425 67.9106 56.3454C68.1767 58.9483 67.5647 61.5656 66.1727 63.7781C65.6922 64.5324 65.1306 65.2315 64.4981 65.8628C64.308 66.0526 64.1848 66.2995 64.1473 66.5659C64.1098 66.8324 64.1599 67.1038 64.2902 67.339C64.4204 67.5743 64.6236 67.7604 64.8688 67.8692C65.1141 67.978 65.388 68.0035 65.649 67.9418C68.3008 67.2878 70.6387 65.7183 72.2532 63.5083C73.8677 61.2983 74.6558 58.5887 74.4795 55.8542C74.3031 53.1196 73.1735 50.5345 71.2886 48.5518C69.4037 46.5691 66.8837 45.3151 64.17 45.0096C63.8091 44.9684 63.4447 45.0486 63.134 45.2376C62.8234 45.4267 62.5841 45.714 62.4537 46.0542C62.3234 46.3945 62.3093 46.7687 62.4137 47.1179C62.5181 47.4671 62.7351 47.7716 63.0306 47.9837Z" fill="#F8EEC8"/>
<g style="mix-blend-mode:multiply" opacity="0.53">
<path d="M66.1036 157.655C34.1359 150.927 9.68384 131.454 2.72632 109.781C3.0716 114.545 4.3319 128.792 7.60636 138.176C10.4473 147.529 16.2104 155.718 24.0446 161.532C31.8788 167.346 41.3686 170.477 51.1124 170.464H80.2431C92.3009 170.469 103.868 165.673 112.407 157.13C98.6814 160.716 82.6313 161.16 66.1036 157.655Z" fill="#F3C74A"/>
</g>
</svg>

<svg width="162" height="174" viewBox="0 0 162 174" fill="none" xmlns="http://www.w3.org/2000/svg"><path d="M151.85 93.698c-10.86-7.987-26.898-4.562-35.818 7.657-8.92 12.22-7.355 28.58 3.516 36.579 10.871 7.998 26.892 4.562 35.818-7.652 8.926-12.214 7.343-28.592-3.516-36.584zm-7.021 28.84c-4.149 5.682-11.602 7.27-16.649 3.557-5.047-3.713-5.754-11.324-1.628-17.001 4.126-5.677 11.601-7.271 16.648-3.558 5.047 3.714 5.778 11.325 1.629 17.002z" fill="#F3C74A"/><g style="mix-blend-mode:multiply" opacity=".53"><path d="M128.37 126.292a10.295 10.295 0 0 1-2.601-2.83l-.201 17.723a24.008 24.008 0 0 0 13.811.45l3.424-16.504c-4.264 3.649-10.191 4.279-14.433 1.161zM126.742 109.285c4.149-5.677 11.601-7.271 16.654-3.558a10.274 10.274 0 0 1 2.774 3.113l3.418-16.505c-7.153-3.927-15.952-3.551-23.473.514l-.202 17.723c.253-.433.541-.849.829-1.287z" fill="#F3C74A" opacity=".53"/></g><path d="M93.508 161.605H37.082c-2.86 0-5.18 2.327-5.18 5.198 0 2.87 2.32 5.197 5.18 5.197h56.426c2.86 0 5.179-2.327 5.179-5.197 0-2.871-2.319-5.198-5.18-5.198z" fill="#F3C74A"/><path d="M129.424 93.317c.057-1.253.126-2.5.166-3.76a9.607 9.607 0 0 0-.623-3.778 9.573 9.573 0 0 0-8.924-6.178H10.553a9.543 9.543 0 0 0-6.883 2.943A9.608 9.608 0 0 0 1 89.557c.215 6.268.63 12.413 1.243 18.434V92.918c5.496.07 9.852 1.26 9.852 16.06 0 8.859-2.25 20.64-4.868 29.037a45.574 45.574 0 0 0 16.44 23.352 45.309 45.309 0 0 0 27.066 8.929H79.84a45.344 45.344 0 0 0 24.723-7.307 45.57 45.57 0 0 0 16.791-19.621c-3.32-7.946-6.779-23.417-6.779-34.39 0-14.8 4.362-15.99 9.852-16.06v40.696c.438-2.117.848-4.262 1.232-6.433V92.889a14.62 14.62 0 0 1 3.764.428z" fill="#F3C74A"/><path d="M39.5 108.949c0 14.542 6.07 36.989 9.852 39.339V92.889c-5.49.087-9.852 1.242-9.852 16.06zM60.435 108.949c0-14.8-4.356-15.99-9.852-16.06v55.399c3.78-2.35 9.852-24.797 9.852-39.339zM15.041 108.949c0 14.542 6.072 36.989 9.853 39.339V92.889c-5.479.087-9.852 1.242-9.852 16.06zM35.978 108.949c0-14.8-4.357-15.99-9.853-16.06v55.399c3.781-2.35 9.853-24.797 9.853-39.339zM65.396 108.949c0 14.542 6.071 36.989 9.852 39.339V92.889c-5.49.087-9.852 1.242-9.852 16.06zM86.332 108.949c0-14.8-4.357-15.99-9.852-16.06v55.399c3.78-2.35 9.852-24.797 9.852-39.339zM90.142 108.949c0 14.542 6.07 36.989 9.852 39.339V92.889c-5.49.087-9.852 1.242-9.852 16.06zM111.077 108.949c0-14.8-4.356-15.99-9.852-16.06v55.399c3.781-2.35 9.852-24.797 9.852-39.339zM2.243 92.89v15.101a250.096 250.096 0 0 0 4.029 26.299c.264 1.264.575 2.506.949 3.725 2.618-8.397 4.869-20.178 4.869-29.037.005-14.847-4.351-16.002-9.847-16.089zM114.599 108.949c0 10.973 3.453 26.444 6.779 34.39a45.147 45.147 0 0 0 2.941-9.078c.046-.225.086-.456.132-.676V92.889c-5.478.087-9.852 1.242-9.852 16.06zM125.683 92.89v34.262a263.03 263.03 0 0 0 3.741-33.835 14.62 14.62 0 0 0-3.741-.428zM68.09 9.557a13.995 13.995 0 0 1 6.525-6.352 1.654 1.654 0 0 0 .945-1.784A1.658 1.658 0 0 0 74.086.046a11.599 11.599 0 0 0-7.144 1.701 11.661 11.661 0 0 0-4.705 5.657 11.71 11.71 0 0 0-.39 7.357 11.674 11.674 0 0 0 4.078 6.127 1.814 1.814 0 0 0 2.88-1.006A1.83 1.83 0 0 0 68.7 18.7a14.026 14.026 0 0 1-.61-9.142z" fill="#F8EEC8"/><path d="M66.604 16.464c.591.43 1.144.912 1.652 1.438a11.744 11.744 0 0 1 1.467 14.362 11.933 11.933 0 0 1-1.68 2.08 1.237 1.237 0 0 0 1.15 2.078 11.566 11.566 0 0 0 6.676-4.515 11.701 11.701 0 0 0 1.2-11.543 11.669 11.669 0 0 0-3.745-4.683 11.613 11.613 0 0 0-5.569-2.196 1.641 1.641 0 0 0-1.722 1.043 1.657 1.657 0 0 0 .571 1.936z" fill="#F8EEC8"/><path d="M62.576 39.731a14.058 14.058 0 0 1 6.526-6.323 1.654 1.654 0 0 0 .995-1.791 1.66 1.66 0 0 0-1.502-1.391 11.475 11.475 0 0 0-6.226 1.19A11.642 11.642 0 0 0 58 35.236a11.697 11.697 0 0 0-1.104 11.21 11.665 11.665 0 0 0 3.538 4.604 1.81 1.81 0 0 0 2.877-1 1.824 1.824 0 0 0-.109-1.183 14.12 14.12 0 0 1-.627-9.136z" fill="#F8EEC8"/><path d="M63.03 47.984c.602.426 1.163.907 1.675 1.438a11.722 11.722 0 0 1 1.468 14.357 12.232 12.232 0 0 1-1.675 2.084 1.238 1.238 0 0 0 .371 2.006c.245.109.52.135.78.073a11.629 11.629 0 0 0 6.605-4.434 11.7 11.7 0 0 0-.965-14.956 11.615 11.615 0 0 0-7.119-3.542 1.636 1.636 0 0 0-1.716 1.044 1.651 1.651 0 0 0 .577 1.93z" fill="#F8EEC8"/><path d="M66.104 157.655c-31.968-6.728-56.42-26.201-63.377-47.874.345 4.764 1.605 19.011 4.88 28.395a45.575 45.575 0 0 0 16.438 23.356 45.314 45.314 0 0 0 27.068 8.932h29.13a45.445 45.445 0 0 0 32.164-13.335c-13.725 3.587-29.775 4.031-46.303.526z" fill="#F3C74A" opacity=".53"/></svg>
